X: 19
T: HORNPIPE: Plains of Boyle
C: C: Trad.; S: Various
C: Set Leaders: Mars, Tania
Z: Mars Agliullin ed.; JHowley at The Session
N: https://thesession.org/members/26966/sets/94258
R: Hornpipe
M: 4/4
L: 1/8
Q: 1/2=82
K: Dmaj
|:FG|AFDE FEDF|(3ABA GB AF D2|fedf edce|dcAB =cAGB|
AFDE FEDF|(3ABA GB AF D2|fedc ABAG|F2D2 D2:||
|:fg|afdf g2 fe|dfed BAFA|(3ABA FA BAFG|(3ABA FA BAfg|
afdf g2 fe|dfed BAFG|~A2 FG ABAG|F2D2 D2:||

